_includes/icons/ios-biometric-passport.svg

<svg fill="#666" height="50" viewBox="0 0 50 50" width="50" xmlns="http://www.w3.org/2000/svg"><path d="m1.8125 8c-.476562.089844-.820312.511719-.8125 1v15.6875c-.058594.195313-.058594.398438 0 .59375v15.71875c0 .550781.449219 1 1 1h46c.550781 0 1-.449219 1-1v-15.8125c.027344-.132812.027344-.273437 0-.40625v-15.78125c0-.550781-.449219-1-1-1h-46c-.03125 0-.0625 0-.09375 0s-.0625 0-.09375 0zm1.1875 2h44v14h-13.0625c-.507812-4.484375-4.320312-8-8.9375-8-4.617187 0-8.429687 3.515625-8.9375 8h-13.0625zm22 8c3.78125 0 6.851563 2.972656 7 6.71875-.054687.183594-.054687.378906 0 .5625-.148437 3.746094-3.21875 6.71875-7 6.71875-3.816406 0-6.902344-3.023437-7-6.8125.027344-.132812.027344-.273437 0-.40625.117188-3.773437 3.195313-6.78125 7-6.78125zm-22 8h13.0625c.507813 4.484375 4.320313 8 8.9375 8 4.617188 0 8.429688-3.515625 8.9375-8h13.0625v14h-44z"/></svg>

<svg xmlns="http://www.w3.org/2000/svg" viewBox="0 0 50 50" width="50" height="50" fill="#666"><path d="M 1.8125 8 C 1.335938 8.089844 0.992188 8.511719 1 9 L 1 24.6875 C 0.941406 24.882813 0.941406 25.085938 1 25.28125 L 1 41 C 1 41.550781 1.449219 42 2 42 L 48 42 C 48.550781 42 49 41.550781 49 41 L 49 25.1875 C 49.027344 25.054688 49.027344 24.914063 49 24.78125 L 49 9 C 49 8.449219 48.550781 8 48 8 L 2 8 C 1.96875 8 1.9375 8 1.90625 8 C 1.875 8 1.84375 8 1.8125 8 Z M 3 10 L 47 10 L 47 24 L 33.9375 24 C 33.429688 19.515625 29.617188 16 25 16 C 20.382813 16 16.570313 19.515625 16.0625 24 L 3 24 Z M 25 18 C 28.78125 18 31.851563 20.972656 32 24.71875 C 31.945313 24.902344 31.945313 25.097656 32 25.28125 C 31.851563 29.027344 28.78125 32 25 32 C 21.183594 32 18.097656 28.976563 18 25.1875 C 18.027344 25.054688 18.027344 24.914063 18 24.78125 C 18.117188 21.007813 21.195313 18 25 18 Z M 3 26 L 16.0625 26 C 16.570313 30.484375 20.382813 34 25 34 C 29.617188 34 33.429688 30.484375 33.9375 26 L 47 26 L 47 40 L 3 40 Z"/></svg>
